images/icon-mail-outlined.svg

<svg class="w-6 h-6" width="24" height="24" viewBox="0 0 24 24" fill="none" xmlns="http://www.w3.org/2000/svg"><path d="M21.4629 6.15624C21.9287 5.85973 22.5471 5.99715 22.8437 6.46288C23.1402 6.92867 23.0028 7.54708 22.5371 7.84374L13.5459 13.5703C13.5345 13.5775 13.5233 13.585 13.5117 13.5918C13.1112 13.8244 12.6626 13.9608 12.2021 13.9912L12.0049 13.9971C11.4757 13.9971 10.9556 13.8575 10.498 13.5918C10.4864 13.585 10.4743 13.5776 10.4629 13.5703L1.46288 7.84374L1.37987 7.78417C0.981919 7.47025 0.878267 6.89971 1.15624 6.46288C1.43428 6.0261 1.99533 5.87783 2.44823 6.10546L2.5371 6.15624L11.5078 11.8652C11.659 11.9518 11.8306 11.9971 12.0049 11.9971L12.1357 11.9892C12.2637 11.9723 12.3872 11.9296 12.5 11.8652L21.4629 6.15624Z" fill="#C39900FF" style="fill-opacity:1;"/><path d="M21 6C21 5.44772 20.5523 5 20 5H4C3.44772 5 3 5.44772 3 6V18C3 18.5523 3.44772 19 4 19H20C20.5523 19 21 18.5523 21 18V6ZM23 18C23 19.6569 21.6569 21 20 21H4C2.34315 21 1 19.6569 1 18V6C1 4.34315 2.34315 3 4 3H20C21.6569 3 23 4.34315 23 6V18Z" fill="#C39900FF" style="fill-opacity:1;"/></svg>

<svg xmlns="http://www.w3.org/2000/svg" width="24" height="24" fill="none" class="w-6 h-6" viewBox="0 0 24 24"><path fill="#c39900ff" d="M21.463 6.156a1 1 0 0 1 1.074 1.688l-8.991 5.726-.034.022c-.4.232-.85.369-1.31.4l-.197.005a3 3 0 0 1-1.542-.427l-9-5.726-.083-.06a1 1 0 0 1 1.068-1.679l.09.051 8.97 5.71a1 1 0 0 0 .497.131l.13-.008a1 1 0 0 0 .365-.124z"/><path fill="#c39900ff" d="M21 6a1 1 0 0 0-1-1H4a1 1 0 0 0-1 1v12a1 1 0 0 0 1 1h16a1 1 0 0 0 1-1zm2 12a3 3 0 0 1-3 3H4a3 3 0 0 1-3-3V6a3 3 0 0 1 3-3h16a3 3 0 0 1 3 3z"/></svg>
